packages/icons/src/assets/raw/outlined/SVG/outlined-social-network.svg

<svg xmlns="http://www.w3.org/2000/svg" viewBox="0 0 24 24">
  <path d="M9.73 11.65a3.58 3.58 0 113.58-3.57 3.57 3.57 0 01-3.58 3.57zm0-6.15a2.58 2.58 0 102.58 2.58A2.58 2.58 0 009.73 5.5z"/>
  <path d="M4 17.33a.5.5 0 01-.5-.5 6.21 6.21 0 016.23-6.23A6.21 6.21 0 0116 16.83h-1a5.22 5.22 0 00-5.27-5.23 5.22 5.22 0 00-5.23 5.23.5.5 0 01-.5.5zM16.46 10.5a2.38 2.38 0 112.37-2.37 2.38 2.38 0 01-2.37 2.37zm0-3.75a1.38 1.38 0 101.37 1.38 1.38 1.38 0 00-1.37-1.38z"/>
  <path d="M20 14a.5.5 0 01-.5-.51 3 3 0 00-5.23-2.06.49.49 0 01-.7 0 .5.5 0 010-.71 4 4 0 017 2.74.5.5 0 01-.57.54z"/>
</svg>

<svg xmlns="http://www.w3.org/2000/svg" viewBox="0 0 24 24">
  <title>outlined-social-network</title>
  <g>
    <g style="opacity: 0">
      <rect width="24" height="24"/>
    </g>
    <g>
      <g style="opacity: 0">
        <g>
          <circle cx="12" cy="12" r="9"/>
          <path d="M12,21.5A9.5,9.5,0,1,1,21.5,12,9.51,9.51,0,0,1,12,21.5Zm0-18A8.5,8.5,0,1,0,20.5,12,8.51,8.51,0,0,0,12,3.5Z"/>
        </g>
      </g>
      <g>
        <path d="M9.73,11.65a3.58,3.58,0,1,1,3.58-3.57A3.57,3.57,0,0,1,9.73,11.65Zm0-6.15a2.58,2.58,0,1,0,2.58,2.58A2.58,2.58,0,0,0,9.73,5.5Z"/>
        <path d="M4,17.33a.5.5,0,0,1-.5-.5A6.21,6.21,0,0,1,9.73,10.6h0A6.21,6.21,0,0,1,16,16.83H15A5.22,5.22,0,0,0,9.73,11.6h0A5.22,5.22,0,0,0,4.5,16.83.5.5,0,0,1,4,17.33Z"/>
        <path d="M16.46,10.5a2.38,2.38,0,1,1,2.37-2.37A2.38,2.38,0,0,1,16.46,10.5Zm0-3.75a1.38,1.38,0,1,0,1.37,1.38A1.38,1.38,0,0,0,16.46,6.75Z"/>
        <path d="M20,14h0a.5.5,0,0,1-.5-.51,3,3,0,0,0-5.23-2.06.49.49,0,0,1-.7,0,.5.5,0,0,1,0-.71,4,4,0,0,1,7,2.74A.5.5,0,0,1,20,14Z"/>
      </g>
    </g>
  </g>
</svg>
